X: 1
T: the Hen's March to the Midden
C: trad. Scotland
R: march
Z: 2019 John Chambers <jc:trillian.mit.edu>
M: 4/4
L: 1/8
K: D
A2 |\
"D"d2A2 defg | "A7"a2gf e2e2 | "D"dcde f2f2 | "G"gfg^g "A7"a4 ||\
"D"agfa "A7"gfeg | "D"fedf "A7"e2A2 |
"D"dfeg (3fga gf | "A7"e2c2 "D"d2 :: "(A)"A2 |\
"A"A2ce A2ce | A2c2 c2e2 | "D"d2fa d2fa | d2f2 f2a2 ||\
"G"d3g g2b2 |
"D"d3f f2a2 | "G"d3g g2b2 | "D"d3f f2a2 ||\
"D"agfa "A7"gfeg | "D"fedf "A7"e2A2 | "D"dfeg (3fga ge | "A7"e2c2 "D"d2 :|
